app/assets/images/icons/active/sight--line.svg

<?xml version="1.0" encoding="UTF-8" standalone="no"?>
<svg width="32px" height="232px" viewBox="0 0 32 232" version="1.1" xmlns="http://www.w3.org/2000/svg" xmlns:xlink="http://www.w3.org/1999/xlink" xmlns:sketch="http://www.bohemiancoding.com/sketch/ns">
    <title>sight--line</title>
    <description>Created with Sketch (http://www.bohemiancoding.com/sketch)</description>
    <defs></defs>
    <g id="Points-of-interest" stroke="none" stroke-width="1" fill="none" fill-rule="evenodd" sketch:type="MSPage">
        <path d="M16.0069835,147 C8.45478515,147 2.53773249,138.294 2.28333215,137.927 L2,137.504 L2.28333215,137.08 C2.5297513,136.709 8.45478515,128 16.0069835,128 C23.5442172,128 29.4682534,136.709 29.7166679,137.08 L30,137.504 L29.7166679,137.927 C29.4682534,138.294 23.5442172,147 16.0069835,147 Z M3.84165895,137.504 C5.10767477,139.207 10.1537804,145.479 16.0069835,145.479 C21.8492126,145.479 26.8923252,139.211 28.1563458,137.504 C26.8923252,135.793 21.8492126,129.518 16.0069835,129.518 C10.1358227,129.518 5.10767477,135.793 3.84165895,137.504 Z M16.0069835,142.469 C13.267441,142.469 11.0416875,140.238 11.0416875,137.504 C11.0416875,134.762 13.267441,132.527 16.0069835,132.527 C18.7315613,132.527 20.9593102,134.762 20.9593102,137.504 C20.9593102,140.238 18.7315613,142.469 16.0069835,142.469 Z M16.0039906,138.91 C15.2248272,138.91 14.5963087,138.275 14.5963087,137.5 C14.5963087,136.725 15.2248272,136.09 16.0039906,136.09 C16.7761705,136.09 17.4066842,136.725 17.4066842,137.5 C17.4066842,138.275 16.7761705,138.91 16.0039906,138.91 Z M16.0069835,134.045 C14.0954892,134.045 12.5551201,135.596 12.5551201,137.504 C12.5551201,139.402 14.0954892,140.951 16.0069835,140.951 C17.9015179,140.951 19.441887,139.402 19.441887,137.504 C19.441887,135.596 17.9015179,134.045 16.0069835,134.045 Z M16.0069835,134.045" id="sight-line--lp-blue" fill="#206FAC" sketch:type="MSShapeGroup"></path>
        <path d="M16.0069835,107 C8.45478515,107 2.53773249,98.294 2.28333215,97.927 L2,97.504 L2.28333215,97.08 C2.5297513,96.709 8.45478515,88 16.0069835,88 C23.5442172,88 29.4682534,96.709 29.7166679,97.08 L30,97.504 L29.7166679,97.927 C29.4682534,98.294 23.5442172,107 16.0069835,107 Z M3.84165895,97.504 C5.10767477,99.207 10.1537804,105.479 16.0069835,105.479 C21.8492126,105.479 26.8923252,99.211 28.1563458,97.504 C26.8923252,95.793 21.8492126,89.518 16.0069835,89.518 C10.1358227,89.518 5.10767477,95.793 3.84165895,97.504 Z M16.0069835,102.469 C13.267441,102.469 11.0416875,100.238 11.0416875,97.504 C11.0416875,94.762 13.267441,92.527 16.0069835,92.527 C18.7315613,92.527 20.9593102,94.762 20.9593102,97.504 C20.9593102,100.238 18.7315613,102.469 16.0069835,102.469 Z M16.0039906,98.91 C15.2248272,98.91 14.5963087,98.275 14.5963087,97.5 C14.5963087,96.725 15.2248272,96.09 16.0039906,96.09 C16.7761705,96.09 17.4066842,96.725 17.4066842,97.5 C17.4066842,98.275 16.7761705,98.91 16.0039906,98.91 Z M16.0069835,94.045 C14.0954892,94.045 12.5551201,95.596 12.5551201,97.504 C12.5551201,99.402 14.0954892,100.951 16.0069835,100.951 C17.9015179,100.951 19.441887,99.402 19.441887,97.504 C19.441887,95.596 17.9015179,94.045 16.0069835,94.045 Z M16.0069835,94.045" id="sight-line--white" fill="#FFFFFF" sketch:type="MSShapeGroup"></path>
        <path d="M16.0069835,67 C8.45478515,67 2.53773249,58.294 2.28333215,57.927 L2,57.504 L2.28333215,57.08 C2.5297513,56.709 8.45478515,48 16.0069835,48 C23.5442172,48 29.4682534,56.709 29.7166679,57.08 L30,57.504 L29.7166679,57.927 C29.4682534,58.294 23.5442172,67 16.0069835,67 Z M3.84165895,57.504 C5.10767477,59.207 10.1537804,65.479 16.0069835,65.479 C21.8492126,65.479 26.8923252,59.211 28.1563458,57.504 C26.8923252,55.793 21.8492126,49.518 16.0069835,49.518 C10.1358227,49.518 5.10767477,55.793 3.84165895,57.504 Z M16.0069835,62.469 C13.267441,62.469 11.0416875,60.238 11.0416875,57.504 C11.0416875,54.762 13.267441,52.527 16.0069835,52.527 C18.7315613,52.527 20.9593102,54.762 20.9593102,57.504 C20.9593102,60.238 18.7315613,62.469 16.0069835,62.469 Z M16.0039906,58.91 C15.2248272,58.91 14.5963087,58.275 14.5963087,57.5 C14.5963087,56.725 15.2248272,56.09 16.0039906,56.09 C16.7761705,56.09 17.4066842,56.725 17.4066842,57.5 C17.4066842,58.275 16.7761705,58.91 16.0039906,58.91 Z M16.0069835,54.045 C14.0954892,54.045 12.5551201,55.596 12.5551201,57.504 C12.5551201,59.402 14.0954892,60.951 16.0069835,60.951 C17.9015179,60.951 19.441887,59.402 19.441887,57.504 C19.441887,55.596 17.9015179,54.045 16.0069835,54.045 Z M16.0069835,54.045" id="sight-line--body-grey" fill="#67747C" sketch:type="MSShapeGroup"></path>
        <path d="M16.0069835,27 C8.45478515,27 2.53773249,18.294 2.28333215,17.927 L2,17.504 L2.28333215,17.08 C2.5297513,16.709 8.45478515,8 16.0069835,8 C23.5442172,8 29.4682534,16.709 29.7166679,17.08 L30,17.504 L29.7166679,17.927 C29.4682534,18.294 23.5442172,27 16.0069835,27 Z M3.84165895,17.504 C5.10767477,19.207 10.1537804,25.479 16.0069835,25.479 C21.8492126,25.479 26.8923252,19.211 28.1563458,17.504 C26.8923252,15.793 21.8492126,9.518 16.0069835,9.518 C10.1358227,9.518 5.10767477,15.793 3.84165895,17.504 Z M16.0069835,22.469 C13.267441,22.469 11.0416875,20.238 11.0416875,17.504 C11.0416875,14.762 13.267441,12.527 16.0069835,12.527 C18.7315613,12.527 20.9593102,14.762 20.9593102,17.504 C20.9593102,20.238 18.7315613,22.469 16.0069835,22.469 Z M16.0039906,18.91 C15.2248272,18.91 14.5963087,18.275 14.5963087,17.5 C14.5963087,16.725 15.2248272,16.09 16.0039906,16.09 C16.7761705,16.09 17.4066842,16.725 17.4066842,17.5 C17.4066842,18.275 16.7761705,18.91 16.0039906,18.91 Z M16.0069835,14.045 C14.0954892,14.045 12.5551201,15.596 12.5551201,17.504 C12.5551201,19.402 14.0954892,20.951 16.0069835,20.951 C17.9015179,20.951 19.441887,19.402 19.441887,17.504 C19.441887,15.596 17.9015179,14.045 16.0069835,14.045 Z M16.0069835,14.045" id="sight-line--title-grey" fill="#3B444F" sketch:type="MSShapeGroup"></path>
        <path d="M16.0069835,187 C8.45478515,187 2.53773249,178.294 2.28333215,177.927 L2,177.504 L2.28333215,177.08 C2.5297513,176.709 8.45478515,168 16.0069835,168 C23.5442172,168 29.4682534,176.709 29.7166679,177.08 L30,177.504 L29.7166679,177.927 C29.4682534,178.294 23.5442172,187 16.0069835,187 Z M3.84165895,177.504 C5.10767477,179.207 10.1537804,185.479 16.0069835,185.479 C21.8492126,185.479 26.8923252,179.211 28.1563458,177.504 C26.8923252,175.793 21.8492126,169.518 16.0069835,169.518 C10.1358227,169.518 5.10767477,175.793 3.84165895,177.504 Z M16.0069835,182.469 C13.267441,182.469 11.0416875,180.238 11.0416875,177.504 C11.0416875,174.762 13.267441,172.527 16.0069835,172.527 C18.7315613,172.527 20.9593102,174.762 20.9593102,177.504 C20.9593102,180.238 18.7315613,182.469 16.0069835,182.469 Z M16.0039906,178.91 C15.2248272,178.91 14.5963087,178.275 14.5963087,177.5 C14.5963087,176.725 15.2248272,176.09 16.0039906,176.09 C16.7761705,176.09 17.4066842,176.725 17.4066842,177.5 C17.4066842,178.275 16.7761705,178.91 16.0039906,178.91 Z M16.0069835,174.045 C14.0954892,174.045 12.5551201,175.596 12.5551201,177.504 C12.5551201,179.402 14.0954892,180.951 16.0069835,180.951 C17.9015179,180.951 19.441887,179.402 19.441887,177.504 C19.441887,175.596 17.9015179,174.045 16.0069835,174.045 Z M16.0069835,174.045" id="sight-line--red" fill="#FA5E5B" sketch:type="MSShapeGroup"></path>
    </g>
</svg>

<svg width="32" height="232" viewBox="0 0 32 232" xmlns="http://www.w3.org/2000/svg" xmlns:sketch="http://www.bohemiancoding.com/sketch/ns"><title>sight--line</title><g sketch:type="MSPage" fill="none"><path d="M16.007 147c-7.552 0-13.469-8.706-13.724-9.073l-.283-.423.283-.424c.246-.371 6.171-9.08 13.724-9.08 7.537 0 13.461 8.709 13.71 9.08l.283.424-.283.423c-.248.367-6.172 9.073-13.71 9.073zm-12.165-9.496c1.266 1.703 6.312 7.975 12.165 7.975 5.842 0 10.885-6.268 12.149-7.975-1.264-1.711-6.307-7.986-12.149-7.986-5.871 0-10.899 6.275-12.165 7.986zm12.165 4.965c-2.74 0-4.965-2.231-4.965-4.965 0-2.742 2.226-4.977 4.965-4.977 2.725 0 4.952 2.235 4.952 4.977 0 2.734-2.228 4.965-4.952 4.965zm-.003-3.559c-.779 0-1.408-.635-1.408-1.41 0-.775.629-1.41 1.408-1.41.772 0 1.403.635 1.403 1.41 0 .775-.631 1.41-1.403 1.41zm.003-4.865c-1.911 0-3.452 1.551-3.452 3.459 0 1.898 1.54 3.447 3.452 3.447 1.895 0 3.435-1.549 3.435-3.447 0-1.908-1.54-3.459-3.435-3.459zm0 0" fill="#206FAC" sketch:type="MSShapeGroup"/><path d="M16.007 107c-7.552 0-13.469-8.706-13.724-9.073l-.283-.423.283-.424c.246-.371 6.171-9.08 13.724-9.08 7.537 0 13.461 8.709 13.71 9.08l.283.424-.283.423c-.248.367-6.172 9.073-13.71 9.073zm-12.165-9.496c1.266 1.703 6.312 7.975 12.165 7.975 5.842 0 10.885-6.268 12.149-7.975-1.264-1.711-6.307-7.986-12.149-7.986-5.871 0-10.899 6.275-12.165 7.986zm12.165 4.965c-2.74 0-4.965-2.231-4.965-4.965 0-2.742 2.226-4.977 4.965-4.977 2.725 0 4.952 2.235 4.952 4.977 0 2.734-2.228 4.965-4.952 4.965zm-.003-3.559c-.779 0-1.408-.635-1.408-1.41 0-.775.629-1.41 1.408-1.41.772 0 1.403.635 1.403 1.41 0 .775-.631 1.41-1.403 1.41zm.003-4.865c-1.911 0-3.452 1.551-3.452 3.459 0 1.898 1.54 3.447 3.452 3.447 1.895 0 3.435-1.549 3.435-3.447 0-1.908-1.54-3.459-3.435-3.459zm0 0" fill="#fff" sketch:type="MSShapeGroup"/><path d="M16.007 67c-7.552 0-13.469-8.706-13.724-9.073l-.283-.423.283-.424c.246-.371 6.171-9.08 13.724-9.08 7.537 0 13.461 8.709 13.71 9.08l.283.424-.283.423c-.248.367-6.172 9.073-13.71 9.073zm-12.165-9.496c1.266 1.703 6.312 7.975 12.165 7.975 5.842 0 10.885-6.268 12.149-7.975-1.264-1.711-6.307-7.986-12.149-7.986-5.871 0-10.899 6.275-12.165 7.986zm12.165 4.965c-2.74 0-4.965-2.231-4.965-4.965 0-2.742 2.226-4.977 4.965-4.977 2.725 0 4.952 2.235 4.952 4.977 0 2.734-2.228 4.965-4.952 4.965zm-.003-3.559c-.779 0-1.408-.635-1.408-1.41 0-.775.629-1.41 1.408-1.41.772 0 1.403.635 1.403 1.41 0 .775-.631 1.41-1.403 1.41zm.003-4.865c-1.911 0-3.452 1.551-3.452 3.459 0 1.898 1.54 3.447 3.452 3.447 1.895 0 3.435-1.549 3.435-3.447 0-1.908-1.54-3.459-3.435-3.459zm0 0" fill="#67747C" sketch:type="MSShapeGroup"/><path d="M16.007 27c-7.552 0-13.469-8.706-13.724-9.073l-.283-.423.283-.424c.246-.371 6.171-9.08 13.724-9.08 7.537 0 13.461 8.709 13.71 9.08l.283.424-.283.423c-.248.367-6.172 9.073-13.71 9.073zm-12.165-9.496c1.266 1.703 6.312 7.975 12.165 7.975 5.842 0 10.885-6.268 12.149-7.975-1.264-1.711-6.307-7.986-12.149-7.986-5.871 0-10.899 6.275-12.165 7.986zm12.165 4.965c-2.74 0-4.965-2.231-4.965-4.965 0-2.742 2.226-4.977 4.965-4.977 2.725 0 4.952 2.235 4.952 4.977 0 2.734-2.228 4.965-4.952 4.965zm-.003-3.559c-.779 0-1.408-.635-1.408-1.41 0-.775.629-1.41 1.408-1.41.772 0 1.403.635 1.403 1.41 0 .775-.631 1.41-1.403 1.41zm.003-4.865c-1.911 0-3.452 1.551-3.452 3.459 0 1.898 1.54 3.447 3.452 3.447 1.895 0 3.435-1.549 3.435-3.447 0-1.908-1.54-3.459-3.435-3.459zm0 0" fill="#3B444F" sketch:type="MSShapeGroup"/><path d="M16.007 187c-7.552 0-13.469-8.706-13.724-9.073l-.283-.423.283-.424c.246-.371 6.171-9.08 13.724-9.08 7.537 0 13.461 8.709 13.71 9.08l.283.424-.283.423c-.248.367-6.172 9.073-13.71 9.073zm-12.165-9.496c1.266 1.703 6.312 7.975 12.165 7.975 5.842 0 10.885-6.268 12.149-7.975-1.264-1.711-6.307-7.986-12.149-7.986-5.871 0-10.899 6.275-12.165 7.986zm12.165 4.965c-2.74 0-4.965-2.231-4.965-4.965 0-2.742 2.226-4.977 4.965-4.977 2.725 0 4.952 2.235 4.952 4.977 0 2.734-2.228 4.965-4.952 4.965zm-.003-3.559c-.779 0-1.408-.635-1.408-1.41 0-.775.629-1.41 1.408-1.41.772 0 1.403.635 1.403 1.41 0 .775-.631 1.41-1.403 1.41zm.003-4.865c-1.911 0-3.452 1.551-3.452 3.459 0 1.898 1.54 3.447 3.452 3.447 1.895 0 3.435-1.549 3.435-3.447 0-1.908-1.54-3.459-3.435-3.459zm0 0" fill="#FA5E5B" sketch:type="MSShapeGroup"/></g></svg>
